X: 39273
T: Tailor's, The
R: reel
M: 4/4
K: Amixolydian
A2 ce a2 fa|e2 ce fece|A2 ce a2 fe|dBcA BGGB|
A2 ce a2 fa|e2 ce fece|defd cdec|dBcA BGGB:|
(3cBA eA fAeA|afef cAfe|(3cBA eA fAec|dBGB dBfe|
(3cBA eA fAeA|afef cAfe|defd cdec|dBcA BGGB:|

